!!!!SEGMENT: pl-wn--mus-iii-62-791-6_zelenski-wladyslaw--piesni-gabryelli-op-25-cobym-ci-chciala-dac.krn
!!!cenid: 18xx:3700
!!!COM: Żeleński, Władysław
!!!COM-rismid: pe41024455
!!!CDT:
!!!CNT:
!!!OTL: Pieśni Gabryelli op. 25/Cobym ci chciała dać?
!!!PDT:
!!!AGN:
!!!SMS-siglum: PL-Wn
!!!SMS-shelfmark: Mus.III.62.791/6
!!!SMS-shelfwork: W
!!!SMS-variant:
!!!SMS-altvar:
!!!NIFC-rismid:
!!!URL-scan: https://polona.pl/item/piesni-gabryelli-z-muzyka-wladyslawa-zelenskiego-op-25-nr-6-gdybym-ci-chciala-dac,MTA2MzEwNDUz/0/#info:metadata
!!!ONB-nifc:
!!!OMD: Andante.
!!!key: A
**kern	**kern	**dynam	**kern	**text	**text	**dynam
*part2	*part2	*part2	*part1	*part1	*part1	*part1
*staff3	*staff2	*	*staff1	*staff1	*staff1	*
*>[A,A,B]	*>[A,A,B]	*>[A,A,B]	*>[A,A,B]	*>[A,A,B]	*>[A,A,B]	*>[A,A,B]
*>A	*>A	*>A	*>A	*>A	*>A	*>A
*I"Fortepian.	*I"Fortepian.	*	*I"Śpiew.	*	*	*
*Ipiano	*Ipiano	*	*Ivox	*	*	*
*ICklav	*ICklav	*	*ICvox	*	*	*
*clefF4	*clefG2	*	*clefG2	*	*	*
*k[f#c#g#]	*k[f#c#g#]	*	*k[f#c#g#]	*	*	*
*A:	*A:	*	*A:	*	*	*
*M3/4	*M3/4	*	*M3/4	*	*	*
=1	=1	=1	=1	=1	=1	=1
!	!	!	!	!	!	!LO:DY:a
(8B\L	(8b/L	p	8b\	Co	.	p
8G#\J	8g#/J	.	8g#/	ja	.	.
4E\	4e/	.	4e/	bym	.	.
4F#\)	4f#/)	.	4f#/	Ci	.	.
=2	=2	=2	=2	=2	=2	=2
!	!	!	!	!	!	!LO:HP:a
(8qqG#/	(8qqg#/	<	(8qqg#/	.	.	<
[2d\)	[2dd\)	.	[2dd\)	chcia-	.	.
8d\L]	8dd\L]	[	8dd\]	.	.	[
!	!	!	!	!	!	!LO:HP:a
8c#\J	8cc#\J	>	8cc#\	-ła	.	>
=3	=3	=3	=3	=3	=3	=3
2B\	2b\	]	2b\	dać?	.	]
4r	4e/	p	4r	.	.	.
=4	=4	=4	=4	=4	=4	=4
*	*^	*	*	*	*	*
!	!	!	!	!LO:TX:a:i:t=semplice	!	!	!
(4A\	8.cc#/L	2e\	.	8.cc#\	Chcia-	Chcia-	.
.	(16cc#/Jk	.	.	16cc#\	-ła-	-ła-	.
4G#\	8.b/L)	.	.	8.b\	-bym	-bym	.
.	(16b/Jk	.	.	16b\	Ci	Ci	.
4F#\)	8cc#/L	4a\	.	8cc#\	dać	dać	.
.	8dd#X/J	.	.	8dd#X\	ko-	ko-	.
*	*v	*v	*	*	*	*	*
!!LO:LB:g=original
=5	=5	=5	=5	=5	=5	=5
*ped	*	*	*	*	*	*
8r	2ee 2g#\	.	(2ee\	-cha-	-cha-	.
(8C#\L	.	.	.	.	.	.
8G#\	.	.	.	.	.	.
*Xped	*	*	*	*	*	*
8c#\	.	.	.	.	.	.
8d#X\	4g#/)	.	4g#/)	-nie,	-nie,	.
8e\J)	.	.	.	.	.	.
=6	=6	=6	=6	=6	=6	=6
*	*^	*	*	*	*	*
(4F#\	8.a/L	2c#\	.	8.a/	Pysz-	Sza-	.
.	(16a/Jk	.	.	16a/	-ny	-fir	.
4E\	8.g#/L)	.	.	8.g#/	pa-	z_nie-	.
.	(16g#/Jk	.	.	16g#/	-łac	-ba	.
4D\)	8a/L	4f#\	.	8a/	na	na	.
.	8b/J	.	.	8b\	mie-	u-	.
*	*v	*v	*	*	*	*	*
=7	=7	=7	=7	=7	=7	=7
*ped	*	*	*	*	*	*
8r	2cc# 2e/	.	(2cc#\	-szka-	-bra-	.
(8AA\L	.	.	.	.	.	.
8E\	.	.	.	.	.	.
*Xped	*	*	*	*	*	*
8A\	.	.	.	.	.	.
8B\	4e/)	.	4e/)	-nie,	-nie,	.
8c#\J)	.	.	.	.	.	.
=8	=8	=8	=8	=8	=8	=8
*	*^	*	*	*	*	*
!	!LO:TX:b:i:t=dolce	!	!	!LO:TX:a:i:t=espress.	!	!	!
(4FF#/	(4a/	8f#\L	.	8a/	Z_ko-	Pro-	.
.	.	8c#\J	.	8g#/	-lum-	-mień	.
2F#\)	8aL 8c#/	2ryy	.	4f#/	-na-	z_słoń-	.
.	8g# 8B/	.	.	.	.	.	.
.	8f# 8A/	.	.	4a/	-mi,	-ca	.
.	8aJ 8c#/)	.	.	.	.	.	.
=9	=9	=9	=9	=9	=9	=9	=9
(4C#/	4g#/	(8e\L	.	8g#/	krysz-	na	.
.	.	8d#X\	.	8f#/	-ta-	wia-	.
2CC#/)	4e/	8c#\	.	8e/L	-la-	-ne-	.
.	.	8G#\	.	8f#/J	.	.	.
.	4g#/	8e\	.	4g#/	-mi,	-czek,	.
.	.	8c#\J)	.	.	.	.	.
!!LO:LB:g=original
=10	=10	=10	=10	=10	=10	=10	=10
!	!	!	!	!	!	!	!LO:HP:a
(4FF#/	(4a/	8f#\L	<	8a/	Zło-	Per-	<
.	.	8c#\J	.	8g#/	-ci-	-ły	.
2F#\)	8aL 8c#/	2ryy	.	4f#/	-ste-	z_ro-	.
.	8g# 8B/	.	.	.	.	.	.
.	8f# 8A/	.	.	4ee\	-mi	-sy	[[
.	8aJ 8c#/)	.	.	.	.	.	.
=11	=11	=11	=11	=11	=11	=11	=11
(4BB/	4f#/	8d#X\L	.	4.dd#X\	wez-	na	.
.	.	8B\	[	.	.	.	.
2BBB/)	2a/	8f#\	.	.	.	.	.
!LO:TX:a:i:t=suivez	!	!	!	!	!	!	!LO:HP:a
.	.	(>8e\	>	8cc#~\	-gło-	sznu-	>
.	.	8d#\	.	8b~\	-wia-	-re-	.
.	.	8f#\J)	]	8a~/	-mi	-czek,	]]
=12	=12	=12	=12	=12	=12	=12	=12
!	!	!	!	!LO:TX:a:i:t=un poco rubato e molto grazioso	!	!	!
4CC#/	(8g#/L	8e\	<	8g#/	I	I	.
.	8f#/	8r	.	8f#/	mięk-	z_gwiaz-	.
4r	8e/	4r	.	8e/	-kie-	-decz-	.
.	8f#/	.	.	8f#/	-mi	-ki	.
(4F#\	8g#/	4e\	.	8g#/	ko-	pier-	.
.	8a#X/J)	.	[	8a#X/	-bier-	-ścio-	.
=13	=13	=13	=13	=13	=13	=13	=13
8G#\L	8b/L	(4.e\	.	8b\	-ca-	-ne-	.
8E\	8b#X/	.	.	8ee\	-mi,	-czek,	.
8A\	8cc#/	.	.	8cc#\	Pod	Na	.
8E#X\J	8bn/J	8d\	.	8g#/	twe	twa	.
4F#\)	[4a/	8c#\L	.	8a/	drob-	ślicz-	.
.	.	8e\J	.	8cc#\	-ne	-na	.
!!LO:LB:g=original
=14	=14	=14	=14	=14	=14	=14	=14
!	!	!	!	!	!	!	!LO:HP:a
4B\	(>8a]L 8d#X/)	2ryy	<	(2.f#/	sto-	re-	<
.	8B/	.	.	.	.	.	.
.	8qd#/	.	.	.	.	.	.
4r	8c#/	.	.	.	.	.	.
.	8B/	.	.	.	.	.	[
!	!	!	!	!	!	!	!LO:HP:a
4BB/	8c#/	4A\	[	.	.	.	>
.	8d#/J)	.	>	.	.	.	.
*	*v	*v	*	*	*	*	*
=15	=15	=15	=15	=15	=15	=15
*ped	*	*	*	*	*	*
8r	4e 4G#/	]	2e/)	-py.	-kę.	]
(8EE\L	.	.	.	.	.	.
8BB\	2r	.	.	.	.	.
*Xped	*	*	*	*	*	*
8E\	.	.	.	.	.	.
8G#\	.	.	4r	.	.	.
8A\J)	.	.	.	.	.	.
=16	=16	=16	=16	=16	=16	=16
(8B\L	(8b/L	pp	8b\	Co	.	.
8G#\J	8g#/J	.	8g#/	ja	.	.
4E\	4e/	.	4e/	bym	.	.
4F#\)	4f#/)	.	4f#/	Ci	.	.
=17	=17	=17	=17	=17	=17	=17
!	!	!	!	!	!	!LO:HP:a
(8qqG#/	(8qqg#/	<	(8qqg#/	.	.	<
[2d\)	[2dd\)	.	[2dd\)	chcia-	.	.
8d\L]	8dd\L]	[	8dd\]	.	.	[
!	!	!	!	!	!	!LO:HP:a
8c#\J	8cc#\J	>	8cc#\	-ła	.	>
=18	=18	=18	=18	=18	=18	=18
2B\	2b\	]	2b\	dać?	.	]
4r	4e/	.	4r	.	.	.
!!LO:PB:g=original
=19	=19	=19	=19	=19	=19	=19
*	*^	*	*	*	*	*
!	!	!	!	!LO:TX:a:i:t=semplice	!	!	!
(4A\	8.cc#/L	2e\	.	8.cc#\	Chcia-	Chcia-	.
.	(16cc#/Jk	.	.	16cc#\	-ła-	-ła-	.
4G#\	8.b/L)	.	.	8.b\	-bym	-bym	.
.	(16b/Jk	.	.	16b\	Ci	Ci	.
4F#\)	8cc#/L	4a\	.	8cc#\	dać	dać	.
.	8dd#X/J	.	.	8dd#X\	ko-	ko-	.
*	*v	*v	*	*	*	*	*
=20	=20	=20	=20	=20	=20	=20
*ped	*	*	*	*	*	*
8r	2ee 2g#\	.	2ee\	-cha-	-cha-	.
(8C#\L	.	.	.	.	.	.
8G#\	.	.	.	.	.	.
*Xped	*	*	*	*	*	*
8c#\	.	.	.	.	.	.
8d#X\	4g#/)	.	4g#/	-nie,	-nie,	.
8e\J)	.	.	.	.	.	.
=21	=21	=21	=21	=21	=21	=21
*	*^	*	*	*	*	*
(4F#\	8.a/L	2c#\	.	8.a/	Ma-	Bia-	.
.	(16a/Jk	.	.	16a/	-ły	-ły	.
4E\	8.g#/L)	.	.	8.g#/	do-	muś-	.
.	(16g#/Jk	.	.	16g#/	-mek	-lin	.
4D\)	8a/L	4f#\	.	8a/	na	na	.
.	8b/J	.	.	8b\	miesz	u-	.
*	*v	*v	*	*	*	*	*
=22	=22	=22	=22	=22	=22	=22
*ped	*	*	*	*	*	*
8r	2cc# 2e/	.	2cc#\	ka-	-bra-	.
(8AA\L	.	.	.	.	.	.
8E\	.	.	.	.	.	.
*Xped	*	*	*	*	*	*
8A\	.	.	.	.	.	.
8B\	4e/)	.	4e/	-nie,	-nie,	.
8c#\J)	.	.	.	.	.	.
!!LO:LB:g=original
=23	=23	=23	=23	=23	=23	=23
*	*^	*	*	*	*	*
!	!LO:TX:b:i:t=dolce	!	!	!LO:TX:a:i:t=espress.	!	!	!
2.BB/	4f#/	(8d\L	.	8dd\	Z_o-	Wia-	.
.	.	8B\	.	8cc#\	-kien-	-nek	.
.	4f#/	8d\	.	4b\	-ka-	z_ha-	.
.	.	8B\	.	.	.	.	.
.	4f#/	8d\	.	4f#/	-mi	-bru	.
.	.	8B\J)	.	.	.	.	.
=24	=24	=24	=24	=24	=24	=24	=24
2FF#/	(4a/	8f#\L	.	8a/	zie-	u-	.
.	.	8c#\J	.	8g#/	-lo-	-ple-	.
.	8aL 8c#/	2ryy	.	8a/L	-ne-	-cio-	.
.	8g# 8B/	.	.	8b/J	.	.	.
4F#\	8f# 8A/	.	.	4cc#\	-mi,	-ny,	.
.	8c#/J)	.	.	.	.	.	.
=25	=25	=25	=25	=25	=25	=25	=25
2.BB/	4f#/	(8d\L	.	8dd\	Z_ła-	Krzyż	.
.	.	8B\	.	8cc#\	-wecz-	z_ol-	.
.	4f#/	8d\	.	4b\	-ka-	-szyn-	.
.	.	8B\	.	.	.	.	.
.	4f#/	8d\	.	4f#/	-mi	-ki	.
.	.	8B\J)	.	.	.	.	.
=26	=26	=26	=26	=26	=26	=26	=26
!	!	!	!	!	!	!	!LO:HP:a
2FF#/	(4a/	8f#\L	<	8a/	brzo-	wy-	<
.	.	8c#\J	.	8g#/	-zo-	-ro-	.
.	8aL 8c#/	2ryy	.	8a/L	-we-	-bio-	.
.	8g# 8B/	.	.	8b/J	.	.	.
4F#\	8f# 8A/	.	[[	4cc#\	-mi,	-ny,	[[
.	8c#/J)	.	.	.	.	.	.
!!LO:LB:g=original
=27	=27	=27	=27	=27	=27	=27	=27
!	!LO:TX:b:i:t=suivez	!	!	!LO:TX:a:i:t=un poco rubato e grazioso	!	!	!
[4BB/	(8f#/L	4d\	.	8dd\	Z_a-	I	.
.	8a/	.	.	8cc#\	-ka-	pier-	.
8BB/]	8dd/)	2ryy	.	8b\	-cya-	-ścio-	.
8r	(8ff#/	.	.	8a/	-mi	-nek	.
4r	8b/	.	.	8g#/	cie-	po-	.
.	8dd/J	.	.	8f#/	-ni-	-świę-	.
*	*v	*v	*	*	*	*	*
=28	=28	=28	=28	=28	=28	=28
!	!	!	!	!	!	!LO:HP:a
2.r	8g#/L	.	8e/	-ste	-co-	<
.	8f#/	.	8d#X/	mi	-ny	.
.	8e/	.	8e/	Na	W_sa-	.
.	8d#X/	.	8f#/	twe	-mej	.
.	8dn/	.	8g#/	bia-	Czę-	.
.	8c#/J	.	8a/	-łe	-sto-	[
=29	=29	=29	=29	=29	=29	=29
*	*^	*	*	*	*	*
4r	8B/L)	4ryy	.	2.b\	czo-	-cho-	.
.	(>8e/J	.	<	.	.	.	.
.	8qg#/	.	.	.	.	.	.
4r	8f#/L	2d\	.	.	.	.	.
.	8e/	.	[	.	.	.	.
4E\	8f#/	.	>	.	.	.	.
.	8g#/J)	.	.	.	.	.	.
*	*v	*v	*	*	*	*	*
=30	=30	=30	=30	=30	=30	=30
!	!	!LO:DY:a=2	!	!	!	!
8r	(>2.a 2.e 2.c#/	] pp	2a/	-ło.	-wie.	.
!LO:TX:b:i:t=con Ped.	!	!	!	!	!	!
(8AA\L	.	.	.	.	.	.
8E\	.	.	.	.	.	.
8A\	.	.	.	.	.	.
8B\	.	.	4r	.	.	.
8c#\J)	.	.	.	.	.	.
!!LO:LB:g=original
=31	=31	=31	=31	=31	=31	=31
8r	2.b 2.f# 2.d/	.	2.r	.	.	.
(8AA\L	.	.	.	.	.	.
8F#\	.	.	.	.	.	.
8B\	.	.	.	.	.	.
8c#\	.	.	.	.	.	.
8d\J)	.	.	.	.	.	.
=32	=32	=32	=32	=32	=32	=32
8r	2.dd 2.g# 2.e/)	.	2.r	.	.	.
(8AA\L	.	.	.	.	.	.
8E\	.	.	.	.	.	.
8B\	.	.	.	.	.	.
8c#\	.	.	.	.	.	.
8d\J)	.	.	.	.	.	.
=33	=33	=33	=33	=33	=33	=33
*	*	*^	*	*	*	*
8r	(2.cc# 2.a 2.e/	<	.	2.r	.	.	.
(8AA\L	.	.	.	.	.	.	.
8E\	.	.	.	.	.	.	.
8A\	.	.	.	.	.	.	.
8B\	.	.	.	.	.	.	.
8c#\J)	.	.	.	.	.	.	.
=34	=34	=34	=34	=34	=34	=34	=34
8r	2.ff# 2.dd 2.a 2.f#\)	[	.	2.r	.	.	.
!LO:TX:b:i:t=espress.	!	!LO:HP:b=2	!	!	!	!	!
(8AA\L	.	<	.	.	.	.	.
8F#\	.	.	.	.	.	.	.
8A\	.	.	.	.	.	.	.
8B\	.	.	.	.	.	.	.
8c#\J	.	.	.	.	.	.	.
=35	=35	=35	=35	=35	=35	=35	=35
8d\L	(2b 2a 2f#/	.	>	2.r	.	.	.
8c#\	.	.	.	.	.	.	.
8B\	.	[	.	.	.	.	.
!	!	!LO:HP:b=2	!	!	!	!	!
8c#\	.	>	.	.	.	.	.
8d\	4b 4g# 4e/)	.	.	.	.	.	.
8E\J)	.	]	.	.	.	.	.
*	*	*v	*v	*	*	*	*
=36	=36	=36	=36	=36	=36	=36
8r	2.cc# 2.a 2.e/	]	2.r	.	.	.
!	!	!LO:DY:b=2	!	!	!	!
(8AA\L	.	pp	.	.	.	.
8E\	.	.	.	.	.	.
8A\	.	.	.	.	.	.
8B\	.	.	.	.	.	.
8c#\J)	.	.	.	.	.	.
!!LO:PB:g=original
=37:|!	=37:|!	=37:|!	=37:|!	=37:|!	=37:|!	=37:|!
*>B	*>B	*>B	*>B	*>B	*>B	*>B
!	!	!	!	!	!	!LO:DY:a
(8B\L	(8b/L	] pp	8b\	Co	.	p
8G#\J	8g#/J	.	8g#/	ja	.	.
4E\	4e/	.	4e/	bym	.	.
4F#\)	4f#/)	.	4f#/	Ci	.	.
=38	=38	=38	=38	=38	=38	=38
!	!	!	!	!	!	!LO:HP:a
(8qqG#/	(8qqg#/	<	(8qqg#/	.	.	<
[2d\)	[2dd\)	.	[2dd\)	chcia-	.	.
8d\L]	8dd\L]	[	8dd\]	.	.	[
!	!	!	!	!	!	!LO:HP:a
8c#\J	8cc#\J	>	8cc#\	-ła	.	>
=39	=39	=39	=39	=39	=39	=39
2B\	2b\	]	2b\	dać?	.	]
4r	4e/	.	4r	.	.	.
=40||	=40||	=40||	=40||	=40||	=40||	=40||
!!!key: a
*k[]	*k[]	*	*k[]	*	*	*
*	*^	*	*	*	*	*
!	!	!	!	!LO:TX:a:i:t=più sonore	!	!	!
(4F\	8.a/L	2c\	.	8.a/	Chcia-	.	.
.	(16a/Jk	.	.	16a/	-ła-	.	.
4E\	8.g/L)	.	.	8.g/	-bym	.	.
.	(16g/Jk	.	.	16g/	Ci	.	.
4D\)	8a/L	4f\	.	8a/	dać	.	.
.	8b/J	.	.	8b\	ko-	.	.
*	*v	*v	*	*	*	*	*
!!LO:LB:g=original
=41	=41	=41	=41	=41	=41	=41
*ped	*	*	*	*	*	*
8r	2cc 2e/	.	(2cc\	-cha-	.	.
(8AA\L	.	.	.	.	.	.
8E\	.	.	.	.	.	.
*Xped	*	*	*	*	*	*
8A\	.	.	.	.	.	.
8B\	4e/)	.	4e/)	-nie	.	.
8c\J)	.	.	.	.	.	.
=42	=42	=42	=42	=42	=42	=42
*	*^	*	*	*	*	*
!	!	!	!	!	!	!	!LO:HP:a
(4A\	8.cc/L	2e\	<	8.cc\	Na	.	<
.	(16cc/Jk	.	.	16cc\	co	.	.
4G\	8.b/L)	.	.	8.b\	tyl-	.	.
.	(16b/Jk	.	.	16b\	-ko	.	.
4F\)	8cc/L	4a\	.	8cc\	Bo-	.	.
.	8dd/J	.	[	8dd\	-ga	.	[
*	*v	*v	*	*	*	*	*
=43	=43	=43	=43	=43	=43	=43
*ped	*	*	*	*	*	*
8r	2ee 2g\	.	(2ee\	sta-	.	.
(8C\L	.	.	.	.	.	.
8G\	.	.	.	.	.	.
*Xped	*	*	*	*	*	*
8c\	.	.	.	.	.	.
8d\	4g/)	.	4g/)	-nie,	.	.
8e\J)	.	.	.	.	.	.
=44	=44	=44	=44	=44	=44	=44
*	*^	*	*	*	*	*
!	!LO:TX:b:i:t=suivez	!	!	!LO:TX:a:i:t=quasi recitativo	!	!	!
(4D\	2.b-X/	(4f\	.	8.b-X\	Wia-	.	.
.	.	.	.	16b-\	-rę	.	.
4E\	.	4g\	.	8b-\	w_ni-	.	.
.	.	.	.	8b-\	-czem	.	.
4D\	.	4f\)	.	8b-\	nie	.	.
.	.	.	.	8b-\	wzru-	.	.
!!LO:LB:g=original
=45	=45	=45	=45	=45	=45	=45	=45
*	*	*	*	*^	*	*	*
*	*	*	*	*	*cue	*	*	*
2C#X/)	(4b-X/	2g 2e\	.	4b-X\	(>4gg/	-szo-	.	.
*	*	*	*	*	*Xcue	*	*	*
.	4a/)	.	.	2a/)	2ryy	-ną,	.	.
(<4C#/	4a/	4g 4e\	.	.	.	.	.	.
*	*v	*v	*	*	*	*	*	*
*	*	*	*v	*v	*	*	*
=46	=46	=46	=46	=46	=46	=46
4D\	2a 2f 2d/	.	8.a/	Mi-	.	.
.	.	.	16a/	-łość	.	.
4Cn/	.	.	8a/	ni-	.	.
.	.	.	8a/	-gdy	.	.
4BB/	[4a [4f [4d/	.	8a/	nie	.	.
.	.	.	8a/	zdra-	.	.
=47	=47	=47	=47	=47	=47	=47
*	*^	*	*^	*	*	*
*	*	*	*	*	*cue	*	*	*
2.BB-X/)	4a] 4f/]	2d\]	.	4a\	(>4dd/	-dzo-	.	.
*	*	*	*	*	*Xcue	*	*	*
.	4g 4e/	.	.	4g/)	2ryy	-ną,	.	.
!	!	!	!	!	!	!	!	!LO:HP:a
.	8f/L	4d\	.	8f/	.	I	.	>
.	8g/J	.	.	8g/	.	szczę-	.	]
*	*	*	*	*v	*v	*	*	*
=48	=48	=48	=48	=48	=48	=48	=48
!	!	!	!	!	!	!	!LO:DY:a
(4AA/	[2a 2c#X/	4f\	pp	4.a/	-śli-	.	pp
4GG/	.	4e\	.	.	.	.	.
.	.	.	.	8a/	-wość	.	.
4FF/	4a] 4f 4cn/	4ryy	.	8a/	wy-	.	.
.	.	.	.	8a/	-ma-	.	.
!!LO:LB:g=original
=49	=49	=49	=49	=49	=49	=49	=49
4EE-X/	[2a 2g/	4c\	<	8a/	-rzo-	.	.
.	.	.	.	8a/	-ną	.	.
!	!	!	!	!	!	!	!LO:HP:a
4DD/	.	4d\	.	8a/	A	.	<
.	.	.	.	8a/	trwa-	.	.
4CC/)	4a] 4f/	4e-X\	.	8a/	-ła	.	.
.	.	.	.	8a/	na	.	[[
*	*v	*v	*	*	*	*	*
=50	=50	=50	=50	=50	=50	=50
*ped	*	*	*	*	*	*
!	!	!	!	!	!	!LO:HP:a
8r	2.dd 2.f 2.d/	[	(2.dd\	wie-	.	>
!	!	!LO:HP:b=2	!	!	!	!
(8BBB-X/L	.	<	.	.	.	.
8FF/	.	.	.	.	.	.
8BB-X/	.	.	.	.	.	.
*Xped	*	*	*	*	*	*
8F/	.	.	.	.	.	.
8B-X/J)	.	[[	.	.	.	.
=51	=51	=51	=51	=51	=51	=51
*ped	*	*	*	*	*	*
8r	[2.e [2.d/	pp	2e/)	-ki.	.	]
(8EE/L	.	.	.	.	.	.
8BBn/	.	.	.	.	.	.
8E/	.	.	.	.	.	.
*Xped	*	*	*	*	*	*
8G#X/	.	.	4r	.	.	.
8A/J)	.	.	.	.	.	.
=52||	=52||	=52||	=52||	=52||	=52||	=52||
!!!key: A
*k[f#c#g#]	*k[f#c#g#]	*	*k[f#c#g#]	*	*	*
*	*^	*	*	*	*	*
!	!	!	!LO:DY:b=2	!	!	!	!LO:DY:a
(8B\L	(8b/L	8e] 8d]\	pp	8b\	Co	.	pp
8G#\J	8g#/J	8ryy	.	8g#/	ja	.	.
4E\	4e/	2ryy	.	4e/	bym	.	.
4F#\)	4f#/)	.	.	4f#/	Ci	.	.
*	*v	*v	*	*	*	*	*
=53	=53	=53	=53	=53	=53	=53
!	!	!	!	!	!	!LO:HP:a
(8qqG#/	(8qqg#/	<	(8qqg#/	.	.	<
[2d\)	[2dd\)	.	[2dd\)	chcia-	.	.
8d\L]	8dd\L]	[	8dd\]	.	.	[
!	!	!	!	!	!	!LO:HP:a
(8c#\J	(8cc#\J	>]	8cc#\	-ła	.	>]
!!LO:PB:g=original
=54	=54	=54	=54	=54	=54	=54
!LO:TX:a:t=P:problem:brak zakończenia łuku	!LO:TX:a:t=P:problem:brak zakończenia łuku	!	!	!	!	!
2B\)	2b\)	.	2b\	dać?	.	.
4r	4e/	.	4r	.	.	.
=55	=55	=55	=55	=55	=55	=55
*	*^	*	*	*	*	*
!	!	!	!	!LO:TX:a:i:t=dolce	!	!	!
(4F#\	8.a/L	2c#\	.	8.a/	Chcia-	.	.
.	(16a/Jk	.	.	16a/	-ła-	.	.
4E\	8.g#/L)	.	.	8.g#/	-bym	.	.
.	(16g#/Jk	.	.	16g#/	Ci	.	.
4D\)	8a/L	4f#\	.	8a/	dac	.	.
.	8b/J)	.	.	8b\	ko-	.	.
*	*v	*v	*	*	*	*	*
=56	=56	=56	=56	=56	=56	=56
*ped	*	*	*	*	*	*
8r	(>2cc# 2e/	.	2cc#\	-cha-	.	.
(8AA\L	.	.	.	.	.	.
8E\	.	.	.	.	.	.
*Xped	*	*	*	*	*	*
8A\	.	.	.	.	.	.
8B\	4e/)	.	4e/	-nie,	.	.
8c#\J)	.	.	.	.	.	.
=57	=57	=57	=57	=57	=57	=57
*	*^	*	*	*	*	*
!	!	!	!	!	!	!	!LO:HP:a
(4A\	8.cc#/L	2e\	<	8.cc#\	Na	.	<
.	(16cc#/Jk	.	.	16cc#\	co	.	.
4G#\	8.b/L)	.	.	8.b\	bie-	.	.
.	(16b/Jk	.	.	16b\	-dnéj	.	.
4F#\)	8cc#/L	4a\	[[	8cc#\	zie-	.	.
.	8dd#X/J)	.	.	8dd#X\	-mi	.	[[
*	*v	*v	*	*	*	*	*
!!LO:LB:g=original
=58	=58	=58	=58	=58	=58	=58
*ped	*	*	*	*	*	*
8r	(2ee 2g#\	.	2ee\	sta-	.	.
(8C#\L	.	.	.	.	.	.
8G#\	.	.	.	.	.	.
*Xped	*	*	*	*	*	*
8c#\	.	.	.	.	.	.
8d#X\	4g#/)	.	4g#/	-nie,	.	.
8e\J)	.	.	.	.	.	.
=59	=59	=59	=59	=59	=59	=59
*	*^	*	*	*	*	*
!	!	!	!	!LO:TX:a:i:t=espress.	!	!	!
(4F#\	(4a/	8f#\L	.	8a/	Smiech	.	.
.	.	8c#\J	.	8g#/	z_próż-	.	.
2FF#/)	8aL 8c#/	2ryy	.	4f#/	-noś-	.	.
.	8g# 8B/	.	.	.	.	.	.
.	8f# 8A/	.	.	4a/	-ci	.	.
.	8aJ 8c#/)	.	.	.	.	.	.
=60	=60	=60	=60	=60	=60	=60	=60
(4C#/	4g#/	(8e\L	.	8g#/	te-	.	.
.	.	8d#X\J	.	8f#/	-go	.	.
2CC#/)	4e/	8c#\L	.	8e/L	świa-	.	.
.	.	8G#\	.	8f#/J	.	.	.
.	4e/	8c#\	.	4g#/	-ta,	.	.
.	.	8G#\J)	.	.	.	.	.
=61	=61	=61	=61	=61	=61	=61	=61
!	!	!	!	!LO:TX:a:i:t=più espress.	!	!	!
(4BB/	4f#/	8d\L	<	8dd\	Po-	.	.
.	.	8B\	.	8cc#\	-bła-	.	.
2BBB/)	4f#/	8d\	.	4b\	-ża-	.	.
.	.	8B\	.	.	.	.	.
.	4f#/	8d\	.	4f#/	-nie	.	.
.	.	8B\J	.	.	.	.	.
=62	=62	=62	=62	=62	=62	=62	=62
(4FF#/	(4a/	8f#\L	.	8a/	na	.	.
.	.	8c#\J	.	8g#/	grzech	.	.
2F#\)	8aL 8c#/	2ryy	[	8a/L	bra-	.	.
.	8g# 8B/	.	.	8b/J	.	.	.
.	8f# 8A/	.	.	4cc#\	-ta	.	.
.	8c#/J)	.	.	.	.	.	.
!!LO:LB:g=original
=63	=63	=63	=63	=63	=63	=63	=63
!	!	!	!	!	!	!	!LO:HP:t=sempre dimin. e slentando
[4BB/	(8f#/L	4.d\	.	8dd\	I	.	>
.	8a/	.	.	8cc#\	mo-	.	.
!	!LO:TX:b:i:t=suivez.	!	!	!	!	!	!
8BB/]	8dd/)	.	.	8b\	-dli-	.	.
8r	(8ff#/	4.ryy	.	8a/	-twę	.	.
4r	8b/	.	.	8g#/	co	.	.
.	8dd/J	.	.	8f#/	u-	.	.
*	*v	*v	*	*	*	*	*
=64	=64	=64	=64	=64	=64	=64
2.r	8g#/L	.	8e/	-la-	.	.
.	8f#/	.	8d#X/	-ta,	.	.
.	8e/	.	8e/	Ku	.	.
.	8d#X/	.	8f#/	nie-	.	.
.	8dn/	.	8g#/	-bu	.	.
.	8c#/J	.	8a/	w_złéj	.	.
=65	=65	=65	=65	=65	=65	=65
*	*^	*	*	*	*	*
!	!	!	!	!	!	!	!LO:HP:a
4r	8B/L)	4ryy	<	2.b\	do-	.	<
.	(>8e/J	.	.	.	.	.	.
.	8qg#/	.	.	.	.	.	.
4r	8f#/L	2d\	.	.	.	.	.
.	8e/	.	[	.	.	.	[
!	!	!	!	!	!	!	!LO:HP:a
4E\	8f#/	.	>	.	.	.	>
.	8g#/J)	.	.	.	.	.	.
*	*v	*v	*	*	*	*	*
=66	=66	=66	=66	=66	=66	=66
*ped	*	*	*	*	*	*
8r	(>2.a 2.e 2.c#/	]	2a/	-li.	.	]
(8AA\L	.	.	.	.	.	.
8E\	.	.	.	.	.	.
*Xped	*	*	*	*	*	*
8A\	.	.	.	.	.	.
8B\	.	.	4r	.	.	.
8c#\J)	.	.	.	.	.	.
=67	=67	=67	=67	=67	=67	=67
!LO:TX:b:i:t=simile	!	!	!	!	!	!
8r	2.b 2.f# 2.d/	.	2.r	.	.	.
(8AA\L	.	.	.	.	.	.
8F#\	.	.	.	.	.	.
8B\	.	.	.	.	.	.
8c#\	.	.	.	.	.	.
8d\J)	.	.	.	.	.	.
!!LO:LB:g=original
=68	=68	=68	=68	=68	=68	=68
8r	2.dd 2.g# 2.e/	.	2.r	.	.	.
(8AA\L	.	.	.	.	.	.
8E\	.	.	.	.	.	.
8B\	.	.	.	.	.	.
8c#\	.	.	.	.	.	.
8d\J)	.	.	.	.	.	.
=69	=69	=69	=69	=69	=69	=69
*	*	*^	*	*	*	*
8r	2.cc# 2.a 2.e/)	<	.	2.r	.	.	.
(8AA\L	.	.	.	.	.	.	.
8E\	.	.	.	.	.	.	.
8A\	.	.	.	.	.	.	.
8B\	.	.	.	.	.	.	.
8c#\J)	.	.	.	.	.	.	.
=70	=70	=70	=70	=70	=70	=70	=70
8r	(2.ff# 2.dd 2.a 2.f#^\	.	.	2.r	.	.	.
!	!	!	!LO:HP:b=2	!	!	!	!
(8AA\L	.	.	<	.	.	.	.
8F#\	.	[	.	.	.	.	.
8A\	.	.	.	.	.	.	.
8B\	.	>	.	.	.	.	.
8c#\J)	.	.	.	.	.	.	.
=71	=71	=71	=71	=71	=71	=71	=71
(8d\L	[2b 2a 2f#/)	.	.	2.r	.	.	.
8c#\	.	.	[	.	.	.	.
!	!	!	!LO:HP:b=2	!	!	!	!
8B\	.	.	>	.	.	.	.
8c#\	.	.	.	.	.	.	.
8d\	4b] 4g# 4e/	.	.	.	.	.	.
8E\J)	.	]	]]	.	.	.	.
*	*	*v	*v	*	*	*	*
=72	=72	=72	=72	=72	=72	=72
*^	*	*	*	*	*	*
*ped	*	*	*	*	*	*	*
8r	2ryy	[2.cc# [>2.a [2.e/	ppp	2.r	.	.	.
4AA/	.	.	.	.	.	.	.
!LO:TX:b:i:t=rall.	!	!	!	!	!	!	!
8E\	.	.	.	.	.	.	.
8A/L	[4A\	.	.	.	.	.	.
8B/J	.	.	.	.	.	.	.
=73	=73	=73	=73	=73	=73	=73	=73
2.c#/	2.A\]	2.cc#] 2.a] 2.e/]	.	2.r	.	.	.
*Xped	*	*	*	*	*	*	*
*v	*v	*	*	*	*	*	*
==	==	==	==	==	==	==
*-	*-	*-	*-	*-	*-	*-
!!!system-decoration: <s1>{(s2,s3)}
!!!RDF**kern: > = above
!!!RDF**kern: < = below
!!!ENC: Arek Malec
!!!END: 2022-03-29
!!!AIN: 1 piano 1 vox
!!!ENC: Andrzej Kubiczek
!!!END: 2022-05-03
